static/img/in-field/checkboxes-dark.svg

<svg width="980" height="185" viewBox="0 0 980 185" fill="none" xmlns="http://www.w3.org/2000/svg">
<rect width="979" height="185" transform="translate(0.5)" fill="#353A40"/>
<path fill-rule="evenodd" clip-rule="evenodd" d="M447.167 47.5H465.833C467.313 47.5 468.5 48.7 468.5 50.1667V68.8333C468.5 70.3 467.313 71.5 465.833 71.5H447.167C445.687 71.5 444.5 70.3 444.5 68.8333V50.1667C444.5 48.7 445.687 47.5 447.167 47.5ZM447.167 59.5L453.833 66.1667L465.833 54.1667L463.953 52.2733L453.833 62.3933L449.047 57.62L447.167 59.5Z" fill="#217CBB"/>
<path fill-rule="evenodd" clip-rule="evenodd" d="M447.167 59.5L453.833 66.1667L465.833 54.1667L463.953 52.2733L453.833 62.3933L449.047 57.62L447.167 59.5Z" fill="#fff"/>
<g clip-path="url(#clip0_6847_89238)">
<path d="M487.541 68.5V52.7949H489.367V66.8672H496.339V68.5H487.541ZM503.421 56.5332C504.825 56.5332 505.867 56.8483 506.547 57.4785C507.227 58.1087 507.567 59.1149 507.567 60.4971V68.5H506.268L505.924 66.7598H505.838C505.508 67.1895 505.165 67.5511 504.807 67.8447C504.449 68.1312 504.033 68.3496 503.561 68.5C503.095 68.6432 502.522 68.7148 501.842 68.7148C501.126 68.7148 500.488 68.5895 499.93 68.3389C499.378 68.0882 498.941 67.7087 498.619 67.2002C498.304 66.6917 498.146 66.0472 498.146 65.2666C498.146 64.0921 498.612 63.1898 499.543 62.5596C500.474 61.9294 501.892 61.5856 503.797 61.5283L505.827 61.4424V60.7227C505.827 59.7057 505.609 58.9932 505.172 58.585C504.735 58.1768 504.119 57.9727 503.324 57.9727C502.708 57.9727 502.121 58.0622 501.562 58.2412C501.004 58.4202 500.474 58.6315 499.973 58.875L499.425 57.5215C499.955 57.2493 500.563 57.0166 501.251 56.8232C501.938 56.6299 502.662 56.5332 503.421 56.5332ZM505.806 62.6992L504.012 62.7744C502.544 62.8317 501.509 63.0716 500.907 63.4941C500.306 63.9167 500.005 64.5146 500.005 65.2881C500.005 65.9613 500.209 66.459 500.617 66.7812C501.025 67.1035 501.566 67.2646 502.239 67.2646C503.285 67.2646 504.141 66.9746 504.807 66.3945C505.473 65.8145 505.806 64.9443 505.806 63.7842V62.6992ZM513.274 51.7852V55.9639C513.274 56.4437 513.26 56.9092 513.231 57.3604C513.21 57.8115 513.192 58.1624 513.178 58.4131H513.274C513.597 57.8831 514.062 57.4355 514.671 57.0703C515.28 56.7051 516.057 56.5225 517.002 56.5225C518.477 56.5225 519.652 57.0345 520.525 58.0586C521.406 59.0755 521.847 60.5902 521.847 62.6025C521.847 63.9274 521.646 65.0446 521.245 65.9541C520.844 66.8636 520.278 67.5511 519.548 68.0166C518.817 68.4821 517.954 68.7148 516.959 68.7148C516.028 68.7148 515.262 68.543 514.66 68.1992C514.066 67.8483 513.607 67.4222 513.285 66.9209H513.146L512.78 68.5H511.491V51.7852H513.274ZM516.712 58.0156C515.86 58.0156 515.183 58.1839 514.682 58.5205C514.18 58.8499 513.819 59.3512 513.597 60.0244C513.382 60.6904 513.274 61.5355 513.274 62.5596V62.6562C513.274 64.1387 513.521 65.2738 514.016 66.0615C514.51 66.8421 515.409 67.2324 516.712 67.2324C517.808 67.2324 518.628 66.8314 519.172 66.0293C519.723 65.2272 519.999 64.0814 519.999 62.5918C519.999 61.0736 519.727 59.9313 519.183 59.165C518.646 58.3988 517.822 58.0156 516.712 58.0156ZM529.745 56.5117C530.748 56.5117 531.607 56.7337 532.323 57.1777C533.039 57.6217 533.587 58.2448 533.967 59.0469C534.346 59.8418 534.536 60.7728 534.536 61.8398V62.9463H526.404C526.426 64.3285 526.77 65.3812 527.436 66.1045C528.102 66.8278 529.04 67.1895 530.25 67.1895C530.995 67.1895 531.654 67.1214 532.227 66.9854C532.799 66.8493 533.394 66.6488 534.01 66.3838V67.9521C533.415 68.2171 532.825 68.4105 532.237 68.5322C531.657 68.654 530.97 68.7148 530.175 68.7148C529.043 68.7148 528.055 68.4857 527.21 68.0273C526.372 67.5618 525.72 66.8815 525.255 65.9863C524.789 65.0911 524.557 63.9954 524.557 62.6992C524.557 61.4316 524.768 60.3359 525.19 59.4121C525.62 58.4811 526.222 57.765 526.995 57.2637C527.776 56.7624 528.692 56.5117 529.745 56.5117ZM529.724 57.9727C528.771 57.9727 528.012 58.2842 527.446 58.9072C526.881 59.5303 526.544 60.4004 526.437 61.5176H532.667C532.66 60.8158 532.549 60.1999 532.334 59.6699C532.126 59.1328 531.808 58.7174 531.378 58.4238C530.948 58.123 530.397 57.9727 529.724 57.9727ZM539.609 68.5H537.815V51.7852H539.609V68.5Z" fill="#fff"/>
</g>
<rect x="444" y="113.5" width="25" height="24" rx="4" fill="#fff"/>
<path fill-rule="evenodd" clip-rule="evenodd" d="M446.778 113.5H466.222C467.75 113.5 469 114.7 469 116.167V134.833C469 136.3 467.75 137.5 466.222 137.5H446.778C445.25 137.5 444 136.3 444 134.833V116.167C444 114.7 445.25 113.5 446.778 113.5ZM466.222 134.833V116.167H446.778V134.833H466.222Z" fill="#353A40"/>
<g clip-path="url(#clip1_6847_89238)">
<path d="M487.541 134.5V118.795H489.367V132.867H496.339V134.5H487.541ZM503.421 122.533C504.825 122.533 505.867 122.848 506.547 123.479C507.227 124.109 507.567 125.115 507.567 126.497V134.5H506.268L505.924 132.76H505.838C505.508 133.189 505.165 133.551 504.807 133.845C504.449 134.131 504.033 134.35 503.561 134.5C503.095 134.643 502.522 134.715 501.842 134.715C501.126 134.715 500.488 134.59 499.93 134.339C499.378 134.088 498.941 133.709 498.619 133.2C498.304 132.692 498.146 132.047 498.146 131.267C498.146 130.092 498.612 129.19 499.543 128.56C500.474 127.929 501.892 127.586 503.797 127.528L505.827 127.442V126.723C505.827 125.706 505.609 124.993 505.172 124.585C504.735 124.177 504.119 123.973 503.324 123.973C502.708 123.973 502.121 124.062 501.562 124.241C501.004 124.42 500.474 124.632 499.973 124.875L499.425 123.521C499.955 123.249 500.563 123.017 501.251 122.823C501.938 122.63 502.662 122.533 503.421 122.533ZM505.806 128.699L504.012 128.774C502.544 128.832 501.509 129.072 500.907 129.494C500.306 129.917 500.005 130.515 500.005 131.288C500.005 131.961 500.209 132.459 500.617 132.781C501.025 133.104 501.566 133.265 502.239 133.265C503.285 133.265 504.141 132.975 504.807 132.395C505.473 131.814 505.806 130.944 505.806 129.784V128.699ZM513.274 117.785V121.964C513.274 122.444 513.26 122.909 513.231 123.36C513.21 123.812 513.192 124.162 513.178 124.413H513.274C513.597 123.883 514.062 123.436 514.671 123.07C515.28 122.705 516.057 122.522 517.002 122.522C518.477 122.522 519.652 123.035 520.525 124.059C521.406 125.076 521.847 126.59 521.847 128.603C521.847 129.927 521.646 131.045 521.245 131.954C520.844 132.864 520.278 133.551 519.548 134.017C518.817 134.482 517.954 134.715 516.959 134.715C516.028 134.715 515.262 134.543 514.66 134.199C514.066 133.848 513.607 133.422 513.285 132.921H513.146L512.78 134.5H511.491V117.785H513.274ZM516.712 124.016C515.86 124.016 515.183 124.184 514.682 124.521C514.18 124.85 513.819 125.351 513.597 126.024C513.382 126.69 513.274 127.535 513.274 128.56V128.656C513.274 130.139 513.521 131.274 514.016 132.062C514.51 132.842 515.409 133.232 516.712 133.232C517.808 133.232 518.628 132.831 519.172 132.029C519.723 131.227 519.999 130.081 519.999 128.592C519.999 127.074 519.727 125.931 519.183 125.165C518.646 124.399 517.822 124.016 516.712 124.016ZM529.745 122.512C530.748 122.512 531.607 122.734 532.323 123.178C533.039 123.622 533.587 124.245 533.967 125.047C534.346 125.842 534.536 126.773 534.536 127.84V128.946H526.404C526.426 130.328 526.77 131.381 527.436 132.104C528.102 132.828 529.04 133.189 530.25 133.189C530.995 133.189 531.654 133.121 532.227 132.985C532.799 132.849 533.394 132.649 534.01 132.384V133.952C533.415 134.217 532.825 134.41 532.237 134.532C531.657 134.654 530.97 134.715 530.175 134.715C529.043 134.715 528.055 134.486 527.21 134.027C526.372 133.562 525.72 132.882 525.255 131.986C524.789 131.091 524.557 129.995 524.557 128.699C524.557 127.432 524.768 126.336 525.19 125.412C525.62 124.481 526.222 123.765 526.995 123.264C527.776 122.762 528.692 122.512 529.745 122.512ZM529.724 123.973C528.771 123.973 528.012 124.284 527.446 124.907C526.881 125.53 526.544 126.4 526.437 127.518H532.667C532.66 126.816 532.549 126.2 532.334 125.67C532.126 125.133 531.808 124.717 531.378 124.424C530.948 124.123 530.397 123.973 529.724 123.973ZM539.609 134.5H537.815V117.785H539.609V134.5Z" fill="#fff"/>
</g>
<defs>
<clipPath id="clip0_6847_89238">
<rect width="57" height="28" fill="#fff" transform="translate(484.5 45.5)"/>
</clipPath>
<clipPath id="clip1_6847_89238">
<rect width="57" height="28" fill="#fff" transform="translate(484.5 111.5)"/>
</clipPath>
</defs>
</svg>

<svg width="980" height="185" fill="none" xmlns="http://www.w3.org/2000/svg"><path fill="#353A40" d="M.5 0h979v185H.5z"/><path fill-rule="evenodd" clip-rule="evenodd" d="M447.167 47.5h18.666c1.48 0 2.667 1.2 2.667 2.667v18.666a2.666 2.666 0 01-2.667 2.667h-18.666c-1.48 0-2.667-1.2-2.667-2.667V50.167a2.666 2.666 0 012.667-2.667zm0 12l6.666 6.667 12-12-1.88-1.894-10.12 10.12-4.786-4.773-1.88 1.88z" fill="#217CBB"/><path fill-rule="evenodd" clip-rule="evenodd" d="M447.167 59.5l6.666 6.667 12-12-1.88-1.894-10.12 10.12-4.786-4.773-1.88 1.88z" fill="#fff"/><g clip-path="url(#prefix__clip0_6847_89238)"><path d="M487.541 68.5V52.795h1.826v14.072h6.972V68.5h-8.798zm15.88-11.967c1.404 0 2.446.315 3.126.945.68.63 1.02 1.637 1.02 3.02V68.5h-1.299l-.344-1.74h-.086c-.33.43-.673.791-1.031 1.085a3.838 3.838 0 01-1.246.655c-.466.143-1.039.215-1.719.215-.716 0-1.354-.126-1.912-.376a2.974 2.974 0 01-1.311-1.139c-.315-.508-.473-1.153-.473-1.933 0-1.175.466-2.077 1.397-2.707.931-.63 2.349-.974 4.254-1.032l2.03-.086v-.72c0-1.016-.218-1.729-.655-2.137-.437-.408-1.053-.612-1.848-.612-.616 0-1.203.09-1.762.268-.558.18-1.088.39-1.589.634l-.548-1.353a9.8 9.8 0 011.826-.699 7.98 7.98 0 012.17-.29zm2.385 6.166l-1.794.075c-1.468.058-2.503.298-3.105.72-.601.423-.902 1.02-.902 1.794 0 .673.204 1.171.612 1.493.408.322.949.484 1.622.484 1.046 0 1.902-.29 2.568-.87.666-.58.999-1.45.999-2.61v-1.086zm7.468-10.914v4.179c0 .48-.014.945-.043 1.396-.021.452-.039.802-.053 1.053h.096c.323-.53.788-.977 1.397-1.343.609-.365 1.386-.547 2.331-.547 1.475 0 2.65.511 3.523 1.536.881 1.017 1.322 2.531 1.322 4.544 0 1.324-.201 2.442-.602 3.351-.401.91-.967 1.597-1.697 2.063-.731.465-1.594.698-2.589.698-.931 0-1.697-.172-2.299-.516-.594-.35-1.053-.777-1.375-1.278h-.139l-.366 1.579h-1.289V51.785h1.783zm3.438 6.23c-.852 0-1.529.169-2.03.505-.502.33-.863.831-1.085 1.504-.215.666-.323 1.511-.323 2.536v.096c0 1.483.247 2.618.742 3.405.494.781 1.393 1.171 2.696 1.171 1.096 0 1.916-.4 2.46-1.203.551-.802.827-1.948.827-3.437 0-1.518-.272-2.66-.816-3.427-.537-.766-1.361-1.15-2.471-1.15zm13.033-1.503c1.003 0 1.862.222 2.578.666.716.444 1.264 1.067 1.644 1.869.379.795.569 1.726.569 2.793v1.106h-8.132c.022 1.383.366 2.435 1.032 3.159.666.723 1.604 1.084 2.814 1.084.745 0 1.404-.068 1.977-.204a10.93 10.93 0 001.783-.601v1.568a8.677 8.677 0 01-1.773.58c-.58.122-1.267.183-2.062.183-1.132 0-2.12-.23-2.965-.688-.838-.465-1.49-1.145-1.955-2.04-.466-.896-.698-1.992-.698-3.288 0-1.267.211-2.363.633-3.287.43-.93 1.032-1.647 1.805-2.148.781-.502 1.697-.752 2.75-.752zm-.021 1.46c-.953 0-1.712.312-2.278.935-.565.623-.902 1.493-1.009 2.61h6.23c-.007-.701-.118-1.317-.333-1.847-.208-.537-.526-.953-.956-1.246-.43-.301-.981-.451-1.654-.451zm9.885 10.528h-1.794V51.785h1.794V68.5z" fill="#fff"/></g><rect x="444" y="113.5" width="25" height="24" rx="4" fill="#fff"/><path fill-rule="evenodd" clip-rule="evenodd" d="M446.778 113.5h19.444c1.528 0 2.778 1.2 2.778 2.667v18.666c0 1.467-1.25 2.667-2.778 2.667h-19.444c-1.528 0-2.778-1.2-2.778-2.667v-18.666c0-1.467 1.25-2.667 2.778-2.667zm19.444 21.333v-18.666h-19.444v18.666h19.444z" fill="#353A40"/><g clip-path="url(#prefix__clip1_6847_89238)"><path d="M487.541 134.5v-15.705h1.826v14.072h6.972v1.633h-8.798zm15.88-11.967c1.404 0 2.446.315 3.126.946.68.63 1.02 1.636 1.02 3.018v8.003h-1.299l-.344-1.74h-.086c-.33.429-.673.791-1.031 1.085a3.84 3.84 0 01-1.246.655c-.466.143-1.039.215-1.719.215-.716 0-1.354-.125-1.912-.376a2.974 2.974 0 01-1.311-1.139c-.315-.508-.473-1.153-.473-1.933 0-1.175.466-2.077 1.397-2.707.931-.631 2.349-.974 4.254-1.032l2.03-.086v-.719c0-1.017-.218-1.73-.655-2.138-.437-.408-1.053-.612-1.848-.612a5.74 5.74 0 00-1.762.268c-.558.179-1.088.391-1.589.634l-.548-1.354a9.857 9.857 0 011.826-.698 7.99 7.99 0 012.17-.29zm2.385 6.166l-1.794.075c-1.468.058-2.503.298-3.105.72-.601.423-.902 1.021-.902 1.794 0 .673.204 1.171.612 1.493.408.323.949.484 1.622.484 1.046 0 1.902-.29 2.568-.87.666-.581.999-1.451.999-2.611v-1.085zm7.468-10.914v4.179c0 .48-.014.945-.043 1.396a116.6 116.6 0 01-.053 1.053h.096c.323-.53.788-.977 1.397-1.343.609-.365 1.386-.548 2.331-.548 1.475 0 2.65.513 3.523 1.537.881 1.017 1.322 2.531 1.322 4.544 0 1.324-.201 2.442-.602 3.351-.401.91-.967 1.597-1.697 2.063-.731.465-1.594.698-2.589.698-.931 0-1.697-.172-2.299-.516-.594-.351-1.053-.777-1.375-1.278h-.139l-.366 1.579h-1.289v-16.715h1.783zm3.438 6.231c-.852 0-1.529.168-2.03.505-.502.329-.863.83-1.085 1.503-.215.666-.323 1.511-.323 2.536v.096c0 1.483.247 2.618.742 3.406.494.78 1.393 1.17 2.696 1.17 1.096 0 1.916-.401 2.46-1.203.551-.802.827-1.948.827-3.437 0-1.518-.272-2.661-.816-3.427-.537-.766-1.361-1.149-2.471-1.149zm13.033-1.504c1.003 0 1.862.222 2.578.666.716.444 1.264 1.067 1.644 1.869.379.795.569 1.726.569 2.793v1.106h-8.132c.022 1.382.366 2.435 1.032 3.158.666.724 1.604 1.085 2.814 1.085.745 0 1.404-.068 1.977-.204a10.916 10.916 0 001.783-.601v1.568a8.695 8.695 0 01-1.773.58c-.58.122-1.267.183-2.062.183-1.132 0-2.12-.229-2.965-.688-.838-.465-1.49-1.145-1.955-2.041-.466-.895-.698-1.991-.698-3.287 0-1.267.211-2.363.633-3.287.43-.931 1.032-1.647 1.805-2.148.781-.502 1.697-.752 2.75-.752zm-.021 1.461c-.953 0-1.712.311-2.278.934-.565.623-.902 1.493-1.009 2.611h6.23c-.007-.702-.118-1.318-.333-1.848-.208-.537-.526-.953-.956-1.246-.43-.301-.981-.451-1.654-.451zm9.885 10.527h-1.794v-16.715h1.794V134.5z" fill="#fff"/></g><defs><clipPath id="prefix__clip0_6847_89238"><path fill="#fff" transform="translate(484.5 45.5)" d="M0 0h57v28H0z"/></clipPath><clipPath id="prefix__clip1_6847_89238"><path fill="#fff" transform="translate(484.5 111.5)" d="M0 0h57v28H0z"/></clipPath></defs></svg>
